src/assets/rainbow.svg

<svg xmlns="http://www.w3.org/2000/svg" viewBox="0 0 20 20"><path fill="currentColor" d="M10 4.75C4.684 4.75.375 9.255.375 14.812c0 .241.196.438.438.438h7.875a.438.438 0 0 0 .438-.438c0-.725.392-1.312.875-1.312s.875.588.875 1.312c0 .241.195.438.438.438h7.875a.438.438 0 0 0 .438-.438C19.625 9.255 15.316 4.75 10 4.75m1.715 9.625c-.162-.998-.868-1.75-1.715-1.75s-1.553.752-1.715 1.75H6.523c.193-1.968 1.676-3.5 3.477-3.5s3.284 1.532 3.477 3.5h-1.762zm2.639 0C14.153 11.923 12.282 10 10 10s-4.154 1.923-4.355 4.375h-1.75C4.106 10.957 6.755 8.25 10 8.25s5.894 2.707 6.104 6.125h-1.75zm2.625 0c-.214-3.902-3.252-7-6.979-7s-6.765 3.098-6.979 7h-1.75c.219-4.87 4.037-8.75 8.729-8.75 4.691 0 8.51 3.88 8.729 8.75h-1.75z"/></svg>

<svg xmlns="http://www.w3.org/2000/svg" viewBox="0 0 20 20">
  <path fill="currentColor" d="M10,4.75c-5.316,0-9.625,4.505-9.625,10.062c0,0.241,0.196,0.438,0.438,0.438h7.875c0.242,0,0.438-0.196,0.438-0.438c0-0.725,0.392-1.312,0.875-1.312s0.875,0.588,0.875,1.312c0,0.241,0.195,0.438,0.438,0.438h7.875c0.242,0,0.438-0.196,0.438-0.438C19.625,9.255,15.316,4.75,10,4.75 M11.715,14.375c-0.162-0.998-0.868-1.75-1.715-1.75s-1.553,0.752-1.715,1.75H6.523c0.193-1.968,1.676-3.5,3.477-3.5c1.801,0,3.284,1.532,3.477,3.5H11.715z M14.354,14.375C14.153,11.923,12.282,10,10,10s-4.154,1.923-4.355,4.375h-1.75C4.106,10.957,6.755,8.25,10,8.25s5.894,2.707,6.104,6.125H14.354zM16.979,14.375c-0.214-3.902-3.252-7-6.979-7s-6.765,3.098-6.979,7h-1.75C1.49,9.505,5.308,5.625,10,5.625c4.691,0,8.51,3.88,8.729,8.75H16.979z"/>
</svg>
